icons/mobile/24/svg/eye-24.svg

<svg width="24" height="24" viewBox="0 0 24 24" fill="none" xmlns="http://www.w3.org/2000/svg">
<path fill-rule="evenodd" clip-rule="evenodd" d="M12.0006 8.00049C13.9334 8.00075 15.5006 9.56765 15.5006 11.5005C15.5004 13.4331 13.9333 15.0002 12.0006 15.0005C10.0678 15.0005 8.50086 13.4333 8.50063 11.5005C8.50063 9.56749 10.0676 8.00049 12.0006 8.00049ZM12.0006 9.75049C11.0341 9.75049 10.2506 10.534 10.2506 11.5005C10.2509 12.4668 11.0343 13.2505 12.0006 13.2505C12.9668 13.2502 13.7504 12.4666 13.7506 11.5005C13.7506 10.5342 12.9669 9.75075 12.0006 9.75049Z" fill="black"/>
<path fill-rule="evenodd" clip-rule="evenodd" d="M11.9997 4.01709C16.1882 4.01709 19.7914 6.42397 21.6139 9.92041C22.1276 10.9074 22.1281 12.092 21.6139 13.0786C19.7914 16.5751 16.1883 18.9819 11.9997 18.9819C7.81124 18.9818 4.20884 16.575 2.38638 13.0786C1.87278 12.0916 1.87224 10.9069 2.38638 9.92041C4.20886 6.42411 7.81129 4.01727 11.9997 4.01709ZM11.9997 5.76709C8.50653 5.76727 5.47955 7.77269 3.93813 10.73C3.68852 11.2093 3.68796 11.7892 3.93813 12.27L4.08657 12.5444C5.66882 15.3506 8.61575 17.2318 11.9997 17.2319C15.4929 17.2319 18.5206 15.2273 20.0622 12.27C20.3119 11.7909 20.3121 11.2108 20.0622 10.73L19.9137 10.4556C18.3315 7.64894 15.384 5.76709 11.9997 5.76709Z" fill="black"/>
</svg>

<!-- This Source Code Form is subject to the terms of the Mozilla Public
   - License, v. 2.0. If a copy of the MPL was not distributed with this
   - file, You can obtain one at http://mozilla.org/MPL/2.0/. -->
<svg xmlns="http://www.w3.org/2000/svg" width="24" height="24" fill="none" viewBox="0 0 24 24">
    <path fill="#000" fill-rule="evenodd" d="M12 8a3.5 3.5 0 1 1 0 7.001 3.5 3.5 0 0 1 0-7m0 1.75a1.75 1.75 0 1 0 0 3.5 1.75 1.75 0 0 0 0-3.5" clip-rule="evenodd" />
    <path fill="#000" fill-rule="evenodd" d="M12 4.017c4.188 0 7.791 2.407 9.614 5.903a3.43 3.43 0 0 1 0 3.159c-1.823 3.496-5.426 5.903-9.614 5.903s-7.791-2.407-9.614-5.903a3.43 3.43 0 0 1 0-3.159C4.21 6.424 7.811 4.017 12 4.017m0 1.75c-3.493 0-6.52 2.006-8.062 4.963-.25.48-.25 1.06 0 1.54l.149.274c1.582 2.807 4.529 4.688 7.913 4.688 3.493 0 6.52-2.005 8.062-4.962.25-.48.25-1.06 0-1.54l-.148-.274C18.33 7.649 15.384 5.767 12 5.767" clip-rule="evenodd" />
</svg>
